X:446
T: IST ES DENN AUCH WIRKLICH WAHR
N: E0368
O: Europa, Mitteleuropa, Deutschland, Ober - Lahnkreis, Dillkreis
R: historisches Lied, Deutsch - Franzoesischer Krieg (1870)
M: 4/4
L: 1/16
K: F
 | F4C4F4A4 | G2F2E2D2C8 |
G4G4G4G4 | G4c4c4B4 |
A4A4A4A4 | A2G2A2B2c8 |
d6c2B4G4 | G8F4z4 |
F4A3GF4A2A2 | G2A2B2A2G4z4 |
G4B2A2G4A2B2 | c2d2c2B2A4z4 |
A4A4A4A4 | A2G2A2B2c8 |
d6c2B4G4 | G8F4z4

@@@ Tune index: 4096
